svgs/sharp-solid/toolbox.svg

<svg xmlns="http://www.w3.org/2000/svg" viewBox="0 0 512 512"><!--! Font Awesome Pro 6.6.0 by @fontawesome - https://fontawesome.com License - https://fontawesome.com/license (Commercial License) Copyright 2024 Fonticons, Inc. --><path d="M152 32l-24 0 0 24 0 72-48 0L0 208 0 320l128 0 0-32 0-32 64 0 0 32 0 32 128 0 0-32 0-32 64 0 0 32 0 32 128 0 0-112-80-80-48 0 0-72 0-24-24 0L152 32zm184 96l-160 0 0-48 160 0 0 48zM0 480l512 0 0-128-128 0 0 32-64 0 0-32-128 0 0 32-64 0 0-32L0 352 0 480z"/></svg>

<svg xmlns="http://www.w3.org/2000/svg" viewBox="0 0 512 512"><!--! Font Awesome Pro 6.4.0 by @fontawesome - https://fontawesome.com License - https://fontawesome.com/license (Commercial License) Copyright 2023 Fonticons, Inc. --><path d="M152 32H128V56v72H80L0 208v96H128V288 256h64v32 16H320V288 256h64v32 16H512V208l-80-80H384V56 32H360 152zm184 96H176V80H336v48zM0 480H512V336H384v16 32H320V352 336H192v16 32H128V352 336H0V480z"/></svg>
